X:335
T:Star of the County Down
M:4/4
L:1/8
K:E minor
%
AG | "Em"E2 E2 E2 DB, | "G"G2 G2 "D"A2 GA | "Em"B2 AG ED B,2 | "D"D6 AG | \
"Em"E2 E2 E2 "D"((3DEF) | "G"G2 G2 "D"A2 GA |
%
"Em"B2 AG "Bm"E2 D2 | "Em"E6 Bc | "G"d2 B2 B2 AG | \
"D"A2 A2 BAGA | "Em"B2 AG ED B,2 | "D"D6 AG |
%
"C"E2 E2 E2 ((3DEF) | "G"G2 G2 "D"A2 GA | "Em"B2 AG "C"E2 ED | \
"Em"E6 Bc | "G"dedc B2 AG | "D"A2 A2 BAGA |
%
"Em"B2 AG ED B,2 | "D"D6 ((3B,CD) | "Em"E2 EG E2 DE | \
"G"GFGB "D"A2 GA | "Em"B2 AG "C"E2 E2 | "Em"E6 |]


